X:365 
T:Ugly Customer, An 
S:Kissane
B:ONMI.1373
F:file ID: onmi.reels/365ugly
Z:Brennan/Black
Q:180
R:reel
M:C|
L:1/8
K:A
EAcA eAcA|EAce dBB2|EAcA eAcA|afed cABG|
EAcA eAcA|EAce dBBg|agae faec|dBed cAAe||
agae fefg|afec dBBe|agae faec|dBed cAAe|
agae faec|dBcA BFF2|EFED EFAB|cdBd cAA2|]
%
P:alternate version in G
K:G 
DGBG dGBG|DGBd cAA2|DGBG dGBG|gedc BGAF|
DGBG dGBG|DGBd cAAf|gfgd egdB|cAdc BGGd||
gfgd edef|gedB cAAd|gfgd egdB|cAdc BGGd|
gfgd egdB|cABG AEE2|DEDC DEGA|BcAc BG G2|]

